!!!OTL: 530b. Schweizers Heimweh.
!!!COM: Fr. Glueck
!!!ODT: 1814
!!!ARE: Europa, Mitteleuropa, Deutschland
!!!SCT: B0530A
!!!TXL: @@GSW
!!!YEM: Copyright 1995, estate of Helmut Schaffrath.
**kern	**text
*ICvox	*
*Ivox	*
*clefG2	*
*M4/4	*
*met(c)	*
*k[b-]	*
*F:	*
!LO:TX:a:t=Gehend.	!
{8a	Herʒ,
8b-/	mis
=1	=1
4.cc	Herʒ,
8cc	wa-
8bnL	-rum
8ccJ	.
8ddL	ſo
8ccJ	.
=2	=2
8ccL	trau-
8bnJ	.
4b-	-rig,
4r}	.
{8b-	und
8b-	was
=3	=3
8b-L	ſoll
8gJ	.
8gL	das
8eJ	.
(4c	Ach
8d)	.
8e	und
=4	=4
2f	Weh?
4r}	.
{8cc	's_iſt
8cc	ſo
=5	=5
8ffL	ſchön
8eeJ	.
8ddL	in
8ccJ	.
8b-L	frem-
8aJ	.
8gL	-den
8fJ	.
=6	=6
8eL	Lan-
8dJ	.
4d	-de!
4r}	.
{8b-	Herʒ,
8dd	mein
=7	=7
4.cc	Herʒ,
8cc	was
(4cc	fehlt
8dd)	.
8ee	dir
=8	=8
(4ggqq	.
2ff)}	meh?
{8ggL	Herʒ,
8ffJ	.
8eeL	mein
8ddJ	.
=9	=9
4.cc	Herʒ,
8a	was
(4cc	fehlt
8b-)	.
8e	dir
=10	=10
2f	meh?
4r}	.
==	==
!!!AGN: Wander -, Heimat - Lied
!!!GTL: Wanderlieder
!!!ONB: ESAC (Essen Associative Code) Database: BOEHME
!!!AMT: simple quadruple
!!!AIN: vox
!!!EED: Helmut Schaffrath
!!!EEV: 1.0
!!Mel. von Fr. Meißner. 1812.
!!@@COMMENT:"Dieſes Lied, von Joh. Rud. Wyß (Prof. in Bern, 4 1830) gedichtet, erſchien ʒuerſt mit
!!vorſtebender Originalmelodie in "Sammlung von Schweiʒer Kuhreihen und Volkslieder". Bern 1812.
!!Daſſelbe wurde auch ins Hochdeutſche übertragen und ihm eine Dur-Mel. vom Pfarrer Fr. Glück
!!1814 beigegeben, hat aber dadurch ſeinen Charakter verloren und iſt kein Schweiʒer Heimweh"
!!mehr, ſondern recht leieriger Bänkelgeſang. Seine in Deutſchland viel geſungene Weiſe - ſie folgt
!!gleich nach - ſollte gar Betthoven verbrochen haben, und man hat lange deſſen Namen beigeſetʒt, bis der wahre 
!!Verfaſſer bekannt geworden."
!!@@END:
!!!Text: J. R. Wyß
!!!URL-scan: https://archive.org/details/BoehmeVtLieder1895/page/n421/mode/2up
!!!ENC: Anna Maria Matuszewska
!!!EEV: 2024/11/07
*-	*-
